!!!COM: Dunstable, John
!!!OTL: Quam pulchra es
!!!ONM: No. 44
!!!YOR: from: "Musica Britannica" Vol. 8, edited by Manfred F. Bukofzer,
!!!YOR: 2nd rev. ed. (prepared by Margaret Bent, Ian Bent & Brian Trowell), pp.112-113
!!!YOO: Royal Musical Association (London)
!!!YOY: 1970
**kern	**kern	**kern
*ICvox	*ICvox	*ICvox
! tenor	! contratenor	! discantus
*M3/4	*M3/4	*M3/4
=1	=1	=1
*>A	*>A	*>A
!! Section 'A'; (O) mensuration.
2.c	2.c	2c
.	.	4e
=2	=2	=2
4B	4G	4d
2A	4D	4.f
.	4F	.
.	.	8e
=3	=3	=3
2G	2C	2g
4E	4c	4g
=4	=4	=4
2D	4d	2a
.	4A	.
4D	4B	4f
=5	=5	=5
4C	4c	4g
4C	4G	4g
4c	4C	4e
=6	=6	=6
8c	8C	8e
8c	8C	8e
4G	4C	4e
4F	8r	8d
.	8A	8c
=7	=7	=7
8D	8B	8f
8C	4c	8e
2F	.	4c
.	8A	.
.	4F	8d
.	.	[8f
=8	=8	=8
8D	8F	8f]
8C	8G	8e
4E	8E	4c
.	8C	.
4D	4F	8B
.	.	16A
.	.	16B
=9	=9	=9
4C	4G	4c
4r	4r	4r
4G	4C	4e
=10	=10	=10
4G	4E	4e
4C	4G	4e
4F	[4A	4r
=11	=11	=11
4D	4A]	4f
4r	4F	4d
4F	4D	4r
=12	=12	=12
4A	4F	4f
8A	8c	8f
8A	8c	8f
4B-	4d	4g
=13	=13	=13
4A	4c	4f
4G	4d	4g
[4c	[4e	[4a
=14	=14	=14
8c]	8e]	8a]
8A	8c	8f
4B-	4d	8f
.	.	8g
4G	4B	4e
=15	=15	=15
2F	4c	4f
.	4A	4r
4F	4B	4d
=16	=16	=16
4.C	4.c	4.e
8C	8c	8e
4E	4G	4c
=17	=17	=17
4D	4F	4B
4C	8G	4c
.	8E	.
4D	4F	4B
=18	=18	=18
4C	4G	2c
4r	4C	.
4G	4C	4r
=19	=19	=19
2C	4r	4g
.	8G	4c
.	8A	.
4BB-	4B-	4d
=20	=20	=20
4C	4G	4c
4G	2C	4r
8G	.	8e
8A	.	8f
=21	=21	=21
8G	2C	8g
4c	.	4a
8G	.	4g
4A	4c	.
.	.	8f#x
=22	=22	=22
4G	4d	2g
4r	4B	.
4C	4c	4r
=23	=23	=23
4F	4c	4a
4F	4c	4a
8D	8B	8f
8D	8B	8f
=24	=24	=24
2C	4c	4g
.	4G	4c
4G	4C	4r
=25	=25	=25
4C	4G	4e
8E	8C	8c
8F	8D	8d
4D	4F	8B
.	.	16A
.	.	16B
=26	=26	=26
4C	4G	4c
4E	4C	4r
8C	8c	8e
8D	8A	8f
=27	=27	=27
8E	8G	8g
8D	8F	8a
4A	4D	4f
4G	8E	[4g
.	[8C	.
=28	=28	=28
4G	8C]	8g]
.	8D	8f
8C	8G	8e
8D	8F	8d
4E	4G	8c#x
.	.	16B
.	.	16c#x
=29	=29	=29
2.D	2.A	2.d
=30	=30	=30
2.r	2.r	2.r
=31	=31	=31
*>B	*>B	*>B
!! Section 'B'; (O) mensuration.
2.A;	2.D;	2.f;
=32	=32	=32
2d;	2D;	2f;
4c	4F	4a
=33	=33	=33
4.B-	4.G	4.g
8A	8A	8f
8A	8c	8f
8B	8d	8g
=34	=34	=34
4G	4B	4e
2F	2c	4f
.	.	4r
=35	=35	=35
4D	4d	4f
8A	8c	8f
8A	8c	8f
4A	4c	4f
=36	=36	=36
4G	4d	4g
8Bn	2r	4g
8c	.	.
4d	.	8f
.	.	8d
=37	=37	=37
8B-x	8d	4f
8A	8c	.
8G	8B	8g
4c	4A	4a
8B	8d	[8g
=38	=38	=38
4A	4c	16g]
.	.	16e
.	.	8f#x
4G	4d	4g
4r	4B	4r
=39	=39	=39
*>C	*>C	*>C
!! Section 'C'; (C.) mensuration.
2c	4A	2a
.	2F	.
4c	.	4a
=40	=40	=40
4d	4D	4b-
4c	4A	4a
4A	4c	8g
.	.	8f
=41	=41	=41
4B-	4d	2f
2G	2B	.
.	.	4e
=42	=42	=42
2F	4c	4f
.	4A	4r
4F	4A	4f
=43	=43	=43
8C	8c	8g
8C	8c	8g
4C	4G	4e
4E	4G	4c
=44	=44	=44
4.G	2C	4.e
8F	.	8d
4F	4D	4d
=45	=45	=45
4E	4G	4c#
2D	2A	4d
.	.	4r
=46	=46	=46
4A	4c	4c
8A	8c	8f
8A	8c	8f
[4c	4F	[4a
=47	=47	=47
4c]	4F	4a]
4B	4r	4.g
4r	4c	.
.	.	8e
=48	=48	=48
4A	4F	4f
4A	4A	4c
8B	8G	8d
8B	8G	8d
=49	=49	=49
4c	4A	2c
4r	4E	.
4A	4F	4r
=50	=50	=50
8E	8G	8c
8E	8G	8c
8C	8E	8c
8C	8E	8A
4D	4F	4B
=51	=51	=51
2C	4G	4c
.	4c	4r
[4D	[4A	[4f
=52	=52	=52
4D]	4A]	4f]
2G	2B	2e
=53	=53	=53
4F	2A	2d
2E	.	.
.	4G	4c#x
=54	=54	=54
2.D	2A	4d
.	.	4r
.	4r	8f
.	.	8e
=55	=55	=55
4A	4.A	8c
.	.	8e
8F	.	8f
8E	4B	4g
8G	.	.
[8A	8c	8e
=56	=56	=56
8A]	4.A	8c
4F	.	8d
.	.	4f
8D	8B	.
8C	8c	8e
8D	[8A	[8d
=57	=57	=57
4F	8A]	8d]
.	8F	8c
8E	8G	8d
8F	8A	4B
4D	4F	.
.	.	8A
=58	=58	=58
[2.C	[2.G	[2.c
=59	=59	=59
2.C]	2.G]	2.c]
==	==	==
*-	*-	*-
!!!ENC: Mark Laxton
!!!EDD: Mark Laxton
!!!YEC: Mark Laxton, 1987
!!!EMD: Reference records added by D. Huron, 2001
!!!EEV: 1.1
